icons/google-admob.svg

<?xml version="1.0" encoding="UTF-8"?>
<svg width="256px" height="256px" viewBox="0 0 256 256" version="1.1" xmlns="http://www.w3.org/2000/svg" xmlns:xlink="http://www.w3.org/1999/xlink" preserveAspectRatio="xMidYMid">
    <g>
        <path d="M122.1632,0.4096 C125.8496,0.1024 129.4336,0 133.12,0 C199.7824,2.4576 253.3376,55.9104 256,122.5728 L256,223.232 C255.8976,241.4592 241.0496,256.1024 222.9248,256.000534 C206.336,253.44 193.6384,239.9232 192.1024,223.232 L192.1024,122.5728 C189.3376,87.4496 158.6176,61.1328 123.4944,63.8976 C123.0848,63.8976 122.6752,64 122.2656,64" fill="#FBBC04"></path>
        <path d="M256,223.9488 C256,241.5616 241.664,255.8976 224.0512,255.8976 C206.4384,255.8976 192.1024,241.5616 192.1024,223.9488 C192.1024,206.336 206.4384,192 224.0512,192 C241.664,192 256,206.336 256,223.9488 Z" fill="#4285F4"></path>
        <path d="M124.0064,254.8736 C142.1312,255.0784 156.9792,240.64 157.184,222.5152 C157.184,222.4128 157.184,222.4128 157.184,222.3104 C156.672,204.6976 141.9264,190.7712 124.3136,191.2832 C124.1088,191.2832 123.8016,191.2832 123.5968,191.2832 C88.6784,188.6208 62.3616,158.3104 64.8192,123.2896 L64.8192,122.7776 C67.3792,91.2384 92.4672,66.3552 124.0064,64 C141.6192,64.7168 156.4672,50.9952 157.184,33.3824 C157.184,33.1776 157.184,33.0752 157.184,32.8704 C156.9792,14.7456 142.1312,0.1024 124.0064,0.305077636 C124.0064,0.305077636 124.0064,0.305077636 124.0064,0.305077636 L121.7536,0.305077636 C53.8624,3.4816 0.4096,59.1872 0,127.1808 L0,127.6928 C0,207.4624 69.9392,254.976 122.0608,254.976 L124.0064,254.976 L124.0064,254.8736 Z" fill="#EA4335"></path>
    </g>
</svg>

<svg xmlns="http://www.w3.org/2000/svg" viewBox="0 0 256 256.001">
  <path fill="#fbbc04" d="M122.163.41C125.85.102 129.433 0 133.12 0 199.782 2.458 253.338 55.91 256 122.573v100.659c-.102 18.227-14.95 32.87-33.075 32.769-16.589-2.561-29.287-16.078-30.823-32.769v-100.66c-2.764-35.122-33.484-61.44-68.608-58.674-.41 0-.819.102-1.228.102"/>
  <path fill="#4285f4" d="M256 223.949c0 17.613-14.336 31.949-31.949 31.949s-31.949-14.336-31.949-31.95c0-17.612 14.336-31.948 31.95-31.948C241.663 192 256 206.336 256 223.949z"/>
  <path fill="#ea4335" d="M124.006 254.874c18.125.204 32.973-14.234 33.178-32.359v-.205c-.512-17.612-15.258-31.539-32.87-31.027h-.717c-34.919-2.662-61.235-32.973-58.778-67.993v-.512C67.38 91.238 92.467 66.355 124.006 64c17.613.717 32.461-13.005 33.178-30.618v-.512C156.979 14.746 142.131.102 124.006.305h-2.252C53.862 3.482.41 59.187 0 127.181v.512c0 79.77 69.94 127.283 122.06 127.283h1.946z"/>
</svg>
